X: 14767
T: Gan Ainm
R: hornpipe
M: 4/4
K: Gmajor
|:(3def|gd (3BdB GBAG|FGAB cedd|dBGB dBGB|(3cBA (3GFE D2(3def|
gd (3BdB GBAG|FGAB cd e2|fedc BAGF|G2 GG G2:|
|:dc|(3BdB GB (3BdB GB|ceAB ceAc|(3BdB GB (3BdB GB|FADA FADc|
(3BdB GB (3BdB GB||cBcd efge|fedc BAGF|G2 GG G2:|

